public/image/icons/modrinth.svg

<?xml version="1.0" encoding="UTF-8" standalone="no" ?>
<!DOCTYPE svg PUBLIC "-//W3C//DTD SVG 1.1//EN" "http://www.w3.org/Graphics/SVG/1.1/DTD/svg11.dtd">
<svg xmlns="http://www.w3.org/2000/svg" xmlns:xlink="http://www.w3.org/1999/xlink" version="1.1" width="1080" height="1080" viewBox="0 0 1080 1080" xml:space="preserve">
<desc>Created with Fabric.js 5.2.4</desc>
<defs>
</defs>
<rect x="0" y="0" width="100%" height="100%" fill="transparent"></rect>
<g transform="matrix(1 0 0 1 540 540)" id="3bddb1b1-d7da-4e6b-a386-b8fc50003485"  >
<rect style="stroke: none; stroke-width: 1; stroke-dasharray: none; stroke-linecap: butt; stroke-dashoffset: 0; stroke-linejoin: miter; stroke-miterlimit: 4; fill: rgb(255,255,255); fill-rule: nonzero; opacity: 1; visibility: hidden;" vector-effect="non-scaling-stroke"  x="-540" y="-540" rx="0" ry="0" width="1080" height="1080" />
</g>
<g transform="matrix(1 0 0 1 540 540)" id="824d16c6-6571-4516-870a-2f7a39f2d766"  >
</g>
<g transform="matrix(38.43 0 0 38.43 539.98 539.98)" id="fd6e150d-2bd9-4dff-ace0-1b30b22c6678"  >
<path style="stroke: rgb(0,0,0); stroke-width: 0; stroke-dasharray: none; stroke-linecap: butt; stroke-dashoffset: 0; stroke-linejoin: miter; stroke-miterlimit: 4; fill: rgb(255,255,255); fill-rule: nonzero; opacity: 1;" vector-effect="non-scaling-stroke"  transform=" translate(-12, -12)" d="M 12.252 0.004 C 8.881321625500423 -0.08528049555275671 5.633928465729388 1.272654088073471 3.3320000000000025 3.7339999999999987 C 2.434052307532196 4.637228089063482 1.6998088101153956 5.689530981674656 1.1620000000000017 6.843999999999998 C 0.37296378305195566 8.451586861777553 -0.024510582538204817 10.222746340859914 0.002000000000000668 12.013000000000005 C 0.00200000000000089 13.432999999999998 0.1720000000000009 14.512999999999998 0.6020000000000009 15.782999999999998 C 0.8420000000000009 16.541999999999998 1.3720000000000008 17.682 1.7720000000000007 18.311999999999998 C 3.7317413523316096 21.41874939381324 6.977785907590215 23.487048291791012 10.621999999999998 23.950999999999993 C 11.062 24.000999999999998 13.161999999999999 24.020999999999997 13.382 23.970999999999997 C 13.581999999999999 23.930999999999997 13.602 24.070999999999998 13.122 22.270999999999997 L 12.762 20.900999999999996 L 11.752 20.840999999999998 C 9.873616810501616 20.829107648887184 8.05208448772902 20.196142749082036 6.572 19.040999999999997 C 6.070110177598528 18.69805301094464 5.63045980411254 18.271930341258223 5.272000000000002 17.780999999999995 C 5.272000000000001 17.730999999999995 5.612000000000001 17.500999999999994 6.012000000000001 17.280999999999995 C 6.9475913986848985 16.69599480112118 7.90852328286012 16.152467704134576 8.891999999999985 15.652000000000008 C 8.922 15.651999999999996 9.392000000000001 16.101999999999997 9.952000000000002 16.631999999999994 L 10.952000000000002 17.601999999999993 L 13.022000000000002 17.171999999999993 L 15.082000000000003 16.741999999999994 L 16.552000000000003 15.271999999999993 C 17.352000000000004 14.471999999999992 18.032000000000004 13.771999999999993 18.032000000000004 13.751999999999994 C 18.032000000000004 13.661999999999994 17.612000000000002 12.121999999999993 17.572000000000003 12.051999999999994 C 17.532000000000004 11.991999999999994 17.372000000000003 12.021999999999995 16.552000000000003 12.231999999999994 C 16.022000000000002 12.361999999999995 15.352000000000004 12.531999999999995 15.102000000000004 12.631999999999994 L 14.622000000000003 12.781999999999995 L 14.092000000000004 13.311999999999994 L 13.562000000000005 13.841999999999993 L 12.632000000000005 13.941999999999993 L 11.702000000000005 14.011999999999993 L 11.182000000000006 13.511999999999993 C 10.661155779995982 13.084913966565066 10.318751771034657 12.47857353402939 10.222000000000005 11.811999999999994 L 10.092000000000004 11.211999999999994 L 10.522000000000004 10.641999999999994 C 11.202000000000004 9.741999999999994 11.202000000000004 9.741999999999994 11.982000000000003 9.541999999999994 C 12.382000000000003 9.441999999999995 12.632000000000003 9.341999999999995 12.812000000000003 9.211999999999994 C 12.942000000000004 9.112999999999994 13.462000000000003 8.632999999999994 13.952000000000004 8.142999999999994 L 14.852000000000004 7.242999999999993 L 14.152000000000005 6.542999999999993 L 13.452000000000005 5.842999999999993 L 11.502000000000006 6.382999999999993 C 10.432000000000006 6.682999999999993 9.542000000000005 6.912999999999993 9.532000000000005 6.912999999999993 C 9.502000000000006 6.912999999999993 7.302000000000005 9.392999999999994 6.9020000000000055 9.882999999999994 L 6.612000000000005 10.232999999999993 L 6.892000000000006 11.262999999999993 C 7.052000000000006 11.822999999999993 7.1920000000000055 12.422999999999993 7.202000000000005 12.602999999999993 L 7.2320000000000055 12.902999999999993 L 6.892000000000006 13.132999999999994 C 6.522000000000006 13.362999999999994 4.672000000000006 14.432999999999995 4.052000000000006 14.762999999999995 C 3.692000000000006 14.962999999999994 3.6820000000000057 14.962999999999994 3.612000000000006 14.862999999999994 C 3.532000000000006 14.762999999999995 3.382000000000006 14.262999999999995 3.292000000000006 13.832999999999995 C 3.112000000000006 12.972999999999995 3.122000000000006 11.082999999999995 3.312000000000006 10.102999999999994 C 4.137148848937509 6.308732592452938 7.342187538795297 3.497223969577691 11.212000000000007 3.1729999999999956 C 11.642000000000007 3.142999999999995 11.982000000000006 3.0929999999999946 11.992000000000006 3.0729999999999946 C 12.052000000000007 2.9029999999999947 12.492000000000006 0.07399999999999451 12.462000000000007 0.03399999999999448 C 12.452000000000007 0.013999999999994479 12.362000000000007 0.013999999999994479 12.262000000000008 0.00399999999999448 Z M 15.932 0.674 C 15.732000000000001 0.674 15.632 0.774 15.562000000000001 1.054 C 15.502 1.284 15.102 3.474 15.102 3.574 C 15.102 3.614 15.202 3.6839999999999997 15.322000000000001 3.734 C 16.4500260882713 4.180177171592632 17.469483617114086 4.862088562122924 18.311999999999998 5.733999999999995 C 19.30451414549013 6.688723708822904 20.046392686397667 7.8733251382627625 20.472 9.183 C 20.79724976149601 10.078699037436193 20.933444040554036 11.032058990842373 20.872 11.983 C 20.872 13.053 20.872 13.253 20.772 13.713000000000001 C 20.475188330911035 15.085326112049227 19.873699118209515 16.373401590840146 19.011999999999997 17.482 C 18.691999999999997 17.881999999999998 18.031999999999996 18.541999999999998 17.641999999999996 18.862 C 17.261999999999997 19.182 16.101999999999997 19.962 15.941999999999997 20.002 C 15.841999999999997 20.032 15.841999999999997 20.061999999999998 15.871999999999996 20.262 C 15.901999999999996 20.442 16.511999999999997 22.822 16.571999999999996 23.042 L 16.631999999999994 23.102 C 20.53933456031532 21.46120165907497 23.298849991585673 17.8931899597708 23.901999999999994 13.702000000000002 C 24.031999999999993 12.932 24.031999999999993 11.122 23.901999999999994 10.302 C 23.3891251905258 6.724016619563331 21.282478099706882 3.570296070689918 18.171999999999983 1.7239999999999966 C 17.471999999999994 1.3040000000000003 16.121999999999993 0.6640000000000001 15.921999999999993 0.6640000000000001 Z" stroke-linecap="round" />
</g>
</svg>

<svg xmlns="http://www.w3.org/2000/svg" role="img" viewBox="0 0 28 28"><title>Modrinth</title><path d="M12.252.004a11.78 11.768 0 0 0-8.92 3.73 11 10.999 0 0 0-2.17 3.11 11.37 11.359 0 0 0-1.16 5.169c0 1.42.17 2.5.6 3.77.24.759.77 1.899 1.17 2.529a12.3 12.298 0 0 0 8.85 5.639c.44.05 2.54.07 2.76.02.2-.04.22.1-.26-1.7l-.36-1.37-1.01-.06a8.5 8.489 0 0 1-5.18-1.8 5.34 5.34 0 0 1-1.3-1.26c0-.05.34-.28.74-.5a37.572 37.545 0 0 1 2.88-1.629c.03 0 .5.45 1.06.98l1 .97 2.07-.43 2.06-.43 1.47-1.47c.8-.8 1.48-1.5 1.48-1.52 0-.09-.42-1.63-.46-1.7-.04-.06-.2-.03-1.02.18-.53.13-1.2.3-1.45.4l-.48.15-.53.53-.53.53-.93.1-.93.07-.52-.5a2.7 2.7 0 0 1-.96-1.7l-.13-.6.43-.57c.68-.9.68-.9 1.46-1.1.4-.1.65-.2.83-.33.13-.099.65-.579 1.14-1.069l.9-.9-.7-.7-.7-.7-1.95.54c-1.07.3-1.96.53-1.97.53-.03 0-2.23 2.48-2.63 2.97l-.29.35.28 1.03c.16.56.3 1.16.31 1.34l.03.3-.34.23c-.37.23-2.22 1.3-2.84 1.63-.36.2-.37.2-.44.1-.08-.1-.23-.6-.32-1.03-.18-.86-.17-2.75.02-3.73a8.84 8.839 0 0 1 7.9-6.93c.43-.03.77-.08.78-.1.06-.17.5-2.999.47-3.039-.01-.02-.1-.02-.2-.03Zm3.68.67c-.2 0-.3.1-.37.38-.06.23-.46 2.42-.46 2.52 0 .04.1.11.22.16a8.51 8.499 0 0 1 2.99 2 8.38 8.379 0 0 1 2.16 3.449 6.9 6.9 0 0 1 .4 2.8c0 1.07 0 1.27-.1 1.73a9.37 9.369 0 0 1-1.76 3.769c-.32.4-.98 1.06-1.37 1.38-.38.32-1.54 1.1-1.7 1.14-.1.03-.1.06-.07.26.03.18.64 2.56.7 2.78l.06.06a12.07 12.058 0 0 0 7.27-9.4c.13-.77.13-2.58 0-3.4a11.96 11.948 0 0 0-5.73-8.578c-.7-.42-2.05-1.06-2.25-1.06Z" fill="#ffffff"/></svg>
